X:1
T:Queste non son
T:Queste non son
T:Orlande de Lassus
C:Orlande de Lassus
%%score [ 1 [ 2 3 ] 4 ]
L:1/8
Q:1/4=84
M:2/2
K:C
V:1 treble nm="Superius" snm="S"
V:2 treble-8 nm="Tenor 1" snm="T 1"
V:3 treble-8 nm="Tenor 2" snm="T 2"
V:4 bass nm="Bassus" snm="B"
V:1
 A8 | A4 ^G4 | A2 A2 d4- | d2 c2 c2 _B2 | A4 A2 F2 | G2 G2 A4- | A2 A2 d3 d | d2 c2 F4 | F4 z4 | %9
w: Que-|ste non|son piu la-|* gri- me che|fuo- re, stil-|lo da gli'oc-|* chi con si|lar- ga ve-|na,|
 z4 z2 A2- | A2 G2 _B4 | A2 c4 B2 | d6 c2 | A2 _B4 A2 | G2 F4 E2 | F2 D4 ^C2 | z2 E2 ^F2 A2- | %17
w: non|_ su- pli-|ran, non su-|pli- ran|le la- gri-|me'al- do- lo-|re fi- nir,|ch'a mez- zo'e-|
 A2 G4 F2 | G6 G2 | A4 F4 | z4 z2 D2 | G3 E ^F2 G2 | A2 G2 F2 E2 | ^F2 G2 z2 G2 | cBAG F2 F2 | %25
w: * ra'il do-|lo- r'a|pe- na,|dal|fuo- co spin- t'ho-|ra'il vi- tal hu-|mo- re, fug-|ge per quel- la via- fu-|
 GFED C2 c2 | A2 c2 BA A2- |"^#" A2 G2 A4 | z4 A3 E | G2 FD F2 E2 | z4 D4 | E6 E2 | G4 ^F4 | z8 | %34
w: ge per quel- la via, ch'a|gli'oc- chi _ _ me-|* * na,|et e|quel che si ver- sa,|et|trar- ra'in|sie- me,||
 z4 z2 A2- | A2 ^G2 G2 A2 | F2 E4 E2 | A2 G2 G4 | G2 E2 FE G2 | G4 z2 d2- | d2 ^c2 c2 d2 | %41
w: e'l|_ do- lor' e|la vi- r'al-|l'ho- r'es- tre-|me, al- l'ho- r'es- tre-|me, e'l|_ do- lor' e|
 A2 A3 A A2 | _B2 A4 A2 | z2 A4 ^G2 | ^G2 AA F4 | E2 A4 G2 | A8 | A8 |] %48
w: la vi- t'al- l'ho-|r'es- tre- me,|e'l do-|lor' e la vi-|t'al- l'ho- r'es-|tre-|me.|
V:2
 e4 f3 e/d/ | c2 d2 e2 e2 | f6 d2 | f2 a2 a2 gf | e4 f2 d2 | e2 d2 f4 | f2 f4 g2 | f2 f2 d4 | %8
w: ste non _ _|_ son piu la-|gri- me|che fu- re, * *|* stil- lo|da gli'oc- chi|con si lar-|ga ve- na,|
 c4 z2 e2- | e2 d2 f4 | e3 d/c/ d2 f2- | f2 e2 c2 g2- | g2 f2 a4 | f2 f4 f2 | d4 c4- | c2 _B2 A4 | %16
w: non su-|_ pli- ran,|non _ _ _ su-|_ pli- ran le|_ la- gri-|me'al do- lo-|re fi-|_ nir, ch'a|
 z2 ^c2 d2 e2 | d4 d4 |"^b" B4 d4 | e4 d4 | z2 A2 d3 B | c2 B2 d2 e2 | f2 e2 d2 ^c2 | z2 d2 gfed | %24
w: mez- zo'e- ra'il|do- lo-|r'a pe-|na, dal|fuo- co spin-|t'ho- ra'il vi- tal|hu- mo- re, fug-|ge per quel- la via-|
 c2 z2 A2 d2- |"^b""^b" dcBB A2 A2 | f2 e2 f4 | e4 e4 | e3 d f2 ec | d3 A z c2 G | _B2 AA ^F2 G2 | %31
w: fu- ge per|_ quel- la via, ch'a gli'oc-|chi me- na,|* et|e quel che si ver-|sa, et e quel|che si ver- sa, et|
 z2 G2 c2 c2 | d4 d4 | z2 f4 e2 | e2 B4 c2 | d2 e2 z2 A2- | A2 ^G2 G2 A2 | c2 e4 d2 | %38
w: trar- ra'in sie-|me, e'l|do- lor'|e la vi-|ta, e'l do-|_ lor' e la|vi- t'al l'ho-|
 d2 G2 A2 d2- | d2 e2 f2 f2 | e4 e2 f2- | f2 e2 e2 ^f2 | g2 e4 A2 | d2 f2 f2 e2 | e4 A4- | %45
w: r'es- tre- me, al-|_ l'ho- r'es- tre-|me, e'l do-|_ lor' e la|vi- t'al l'ho-|r'es- tre- me, *|al- l'ho-|
 A2 c2 d3 e | f2 ed e4 | ^f8 |] %48
w: * r'es- tre- *|me. * * *|ÿT|
V:3
 ^c4 d4 | A4 B2 B2 | d6 G2 | d2 e2 f2 d2- | dccB/c/ d2 A2 | c2 B2 c2 d2 | c4 _B2 B2- | B2 A2 _B4 | %8
w: ste non|son- piu la-|gri- me|che fuo- re, *|* * * * * stil- lo|da gli'oc- chi con|si lar- ga|* ve- na,|
 A4 c4- | c2 B2 d4 | c3 B/A/ G2 d2- | d2 c2 e4 | d2 d2 f2 f2 | d6 c2 | _B3 A G4 | A2 G2 E4 | %16
w: non su-|_ pli- ran,|non _ _ _ su-|_ pli- ran|le la- gri- me'al|do- lo-|re * *|fi- nir, ch'a|
 z2 A4 A2 | _B4 A2 A2 | d4 G2 d2- | d^c/B/ c2 d2 A2 | ^c3 d B3 G | G2 G2 AA c2 | c4 z2 A2 | %23
w: mez- zo'e-|ra'il do- lo-|r'a pe- na,|* * * * del fuo-|co spin t'ho- ra'il|vi- t'al hu- mo- re,|fug- ge|
 dcBA G3 G | AGFE D2 _B2 | _BAGF E2 e2 | d2 G2 d3 c | B4 A2 c2- | cc B2 cd c2 | B2 z2 A3 E | %30
w: per quel- la via,- fu- ge|per quel- la via, fu- ge|per quel- la via, ch'a gli'oc-|chi me- na, *|* et e|_ quel che si ver- sa,|et e quel|
 G2 FD A2 B2 | z2 c2 G2 G2 | _B4 A4 | d6 ^c2 | ^c2 e2 e4 | A2 B2 e2 dc | dcBA B2 c2 | AF c2 G4 | %38
w: che si ver- sa, et|trar- ra'in sie-|me, e'l|do- lor'|e la vi-|t'al- l'ho- r'es- * *|* * * * * tre-|me, * * e'l|
 z2 c4 B2 | B2 c2 A2 A2- | A2 A2 A2 A2 | d2 A2 z2 d2- | d2 ^c2 c2 d2 | B2 A2 d2 B2- | %44
w: do- lor'|e la vi t'al-|_ l'ho- r'es- tre-|me, e'l do-|_ lor' e la|vi- t'al- l'ho- r'es-|
 BB ^c2 d2 d2 | c2 f4 d2- | d2 ^cB c d2 c | d8 |] %48
w: * * * tre- me.|||Que-|
V:4
 A,4 D,4 | F,4 E,4 | z2 D,2 _B,4- | B,2 A,2 F,2 G,2 | A,4 D,2 D,2 | C,2 G,2 F,2 D,2 | %6
w: ste non|son piu|la- gri-|* me che fuo-|re, stil- lo|de gli'oc- chi con|
 F,4 _B,,2 B,,2- | B,,2 F,,2 _B,,4 | F,,2 F,4 C,2 | G,4 D,4 | z8 | z2 A,4 G,2 | _B,4 A,4 | %13
w: si lar- ga|* ve- na,|non su- pli-|ran, non||su- pli-|ran le|
 D,4 F,3 F, | _B,,2 B,,2 C,4 | F,,2 G,,2 A,,4 | z2 A,,2 D,2 ^C,2 | D,4 D,4 | G,,2 G,2 _B,4 | %19
w: la- gri- me'al|do- lo- re|fi- nir, ch'a|mez- zo'e ra'il|do- lo-|r'a pe- na,|
 A,4 D,2 D,2 | A,3 ^F, G,2 G,2 | E,2 E,2 D,2 C,2 | F,2 C,2 z4 | D,2 G,F, E,D, C,2 | %24
w: * del fuo-|co spin- t'ho- ra'il|vi- t'al hu- mo-|re, fu-|ge per quel- la via, fu-|
 A,,2 D,3 C,_B,,A,, | G,,4 A,,4 | D,2 C,2 D,4 | E,4 A,,2 A,2- | A,E, G,2 F,D, A,2 | %29
w: ge per quel- la via,|ch'a gli'oc-|chi me- na,|* et e|_ quel che si ver- sa,|
 G,2 D,3 A,, C,2 | _B,,G,, D,4 G,,2 | z2 C,2 C,2 C,2 | G,,4 D,4- | D,4 A,4- | A,2 ^G,2 G,2 A,2 | %35
w: et e quel che|si ver- sa, et|trar- ra'ni sie-|me, e'l-|_ do-|_ lor' e la|
 F,2 E,4 F,2 | D,2 E,2 E,2 A,,2 | z2 C,4 B,,2 | B,,2 C,C, A,,2 G,,2 | G,2 C,2 D,4 | A,,4 z2 D,2- | %41
w: vi- t'al- ho-|r'es- tre- me, e'l|do- lor|e la vi- t'al- l'ho-|r'es- tre- me,|e'l do-|
 D,2 ^C,2 C,2 D,2 | G,,2 A,,2 A,2 ^F,2 | G,2 D,4 E,2- | E,2 A,,2 D,E,F,G, | A,4 _B,4 | A,8 | D,8 |] %48
w: _ lor e la|vi- t'al- l'ho- r'es-|tre- me. *|||||

